assets/incoming.svg

<svg fill="none" height="10" viewBox="0 0 10 10" width="10" xmlns="http://www.w3.org/2000/svg"><path d="m3.41421 8h5.58579c.50626 0 .92465.37621.99087.86431l.00913.13569c0 .50626-.37621.92465-.86431.99087l-.13569.00913h-7.9998c-.00007 0 .00007 0 0 0-.255855-.00005-.512095-.09768-.707307-.29289-.095819-.09582-.168127-.20625-.2169258-.32411-.0323442-.07795-.0551129-.16087-.06683863-.24731-.00604248-.04468-.00912857-.09067-.00912857-.13569 0-.0001 0 .0001 0 0v-8c0-.552285.447715-.99999968 1-.99999968.50626 0 .92465.37620568.99087.86430568l.00913.135694v5.58579l6.29289-6.292897c.39053-.3905241 1.02369-.3905241 1.41422 0 .35499.355022.38729.910577.09682 1.302057l-.09682.11216z" fill="#13cdc2"/></svg>

<svg width="10" height="10" viewBox="0 0 10 10" fill="none" xmlns="http://www.w3.org/2000/svg">
<path d="M3.41421 8H9C9.50626 8 9.92465 8.37621 9.99087 8.86431L10 9C10 9.50626 9.62379 9.92465 9.13569 9.99087L9 10H1.0002C1.00013 10 1.00027 10 1.0002 10C0.744345 9.99995 0.488105 9.90232 0.292893 9.70711C0.197074 9.61129 0.124766 9.50086 0.0759672 9.383C0.043623 9.30505 0.0208543 9.22213 0.00912857 9.13569C0.00308609 9.09101 0 9.04502 0 9C0 8.9999 0 9.0001 0 9V1C0 0.447715 0.447715 3.17891e-07 1 3.17891e-07C1.50626 3.17891e-07 1.92465 0.376206 1.99087 0.864306L2 1V6.58579L8.29289 0.292893C8.68342 -0.0976311 9.31658 -0.0976311 9.70711 0.292893C10.0621 0.647915 10.0944 1.20347 9.80393 1.59495L9.70711 1.70711L3.41421 8Z" fill="#13CDC2"/>
</svg>
